X:1
T:Title
%%score 1 2
L:1/8
Q:1/4=100
M:4/4
K:Eb
V:1 treble nm="Grand Piano, Soprano"
V:2 bass nm="Choir Pad, Bass"
V:1
 [GB]2 [GB]2- [GB][Ac] [GB]>[EG] | [DF]>E E6 | [GB]2 [Ac]2- [Ac][Bd] [ce]>[Ac] | [GB]>[EG] [DF]6 | %4
w: By~Curtis~V.~Strickland * * * * *||||
 [GB]2 [GB]2- [GB][Ac] [GB]>[EG] | [DA]>[_DB] [Ec]6 | [GB]2 [GB]2- [GB][Ac] [GB]>[EG] | %7
w: |||
 .[DF]>E E6 | [Ge]2 [Ge]2- [Ge][Ge] [Ge]<[Ge] | [Bd][Ac] [GB]6 | [GB]2 [GB]2- [GB][Ac] [GB]>[EG] | %11
w: ||||
 [FA]>[EG] [DF]6 | [Ge]2 [Ge]2- [Ge][Ge] [Ge]>[GB] | [Bd]>[Ac] [GB]6 | %14
w: |||
 [GB]2 [Ac]2- [Ac][GB] [GB]>[FA] | [EG]>[DF] E6- | E2 z2 z4 |] %17
w: |||
V:2
 [E,E]2 [E,E]2- [E,E][E,E] [E,E]>[E,B,] | [B,,A,]>[E,G,] [E,G,]6 | %2
 [E,E]2 [A,E]2- [A,E][A,E] [A,E]>[A,E] | [E,E]>[E,B,] [B,,B,]6 | %4
 [E,B,]2 [E,E]2- [E,E][E,E] [E,E]>[E,B,] | [F,B,]>[G,B,] A,6 | %6
 [E,E]2 [E,E]2- [E,E][E,E] [E,E]>[B,,B,] | .[B,,A,]>[E,G,] [E,G,]6 | %8
 [E,B,]2 [E,B,]2- [E,B,][E,B,] [E,B,]<[E,E] | [E,E][E,E] [E,E]6 | %10
 [E,E]2 [E,E]2- [E,E][E,E] [E,E]>[E,B,] | [D,B,]>[E,B,] [B,,B,]6 | %12
 [E,B,]2 [E,E]2- [E,E][E,E] [E,E]>[E,E] | [E,E]>[E,E] [E,E]6 | %14
 [E,E]2 [E,E]2- [E,E][E,B,] [B,,B,]>[B,,B,] | [B,,B,]>[B,,A,] [E,G,]6- | [E,G,]2 z2 z4 |] %17

